X: 617
T:Christmas Cheer
M:3/4
L:1/4
S:Playford English Dancing Master 12th edition 1703
Z:Steve Mansfield 25 December 2002
N:Posted to the woodenflute mailing list December 2002
K:Dm
A | dfd | ^cAc | dfd | ^c2A | dfd | ege | fa^c | d2e | faf | gba |
g/a/ba | g2a | bag | acf | gae | f2 :: c | AcA | GcG | AcA | G2c | Acf |
def | efd | ^c2a | fad | ^cAa | fad | ^c2a | fad | ^cAd | d&gt;e^c | d2 :|
<end>
<start>
